Papirus/64x64/mimetypes/text-x-python.svg

<svg xmlns="http://www.w3.org/2000/svg" width="64" height="64" version="1">
 <path style="opacity:0.2" d="m 14.5,8.0000002 c -1.385,0 -2.5,1.115 -2.5,2.4999998 v 45 c 0,1.385 1.115,2.5 2.5,2.5 h 35 C 50.885,58 52,56.885 52,55.5 V 23 L 38.25,21.75 37,8.0000002 Z"/>
 <path fill="#e4e4e4" d="m14.5 7c-1.385 0-2.5 1.115-2.5 2.5v45c0 1.385 1.115 2.5 2.5 2.5h35c1.385 0 2.5-1.115 2.5-2.5v-32.5l-13.75-1.25-1.25-13.75z"/>
 <path style="opacity:0.2" d="M 37,8.0000002 V 20.5 c 0,1.3808 1.1193,2.5 2.5,2.5 H 52 Z"/>
 <path fill="#fafafa" d="m37 7v12.5c0 1.3808 1.1193 2.5 2.5 2.5h12.5l-15-15z"/>
 <path d="M 30.719,28 C 27.689,28 24.811,30.001 25,32.156 V 35 H 22.906 C 20.742,35 19,36.939 19,39.969 v 1.562 C 19,44.561 20.742,47 22.906,47 H 25 V 43.875 C 25,42.144 26.644,41 28.375,41 h 6.25 c 0,0 3.375,0 3.375,-3.375 V 32.156 C 38,29.992 35.311,28 32.281,28 Z M 28.5,31 C 29.328,31 30,31.672 30,32.5 30,33.328 29.328,34 28.5,34 27.672,34 27,33.328 27,32.5 27,31.672 27.672,31 28.5,31 Z" style="fill:#4795d1"/>
 <path style="fill:#ffa751" d="M 38 35 L 38 37.625 L 38 38.125 C 38 38.239614 37.963161 38.375251 37.900391 38.521484 C 37.900255 38.522102 37.900526 38.52282 37.900391 38.523438 C 37.707881 39.398061 37.241332 39.951942 36.716797 40.316406 C 36.645267 40.366595 36.575034 40.412093 36.501953 40.455078 C 36.375627 40.528703 36.255278 40.595925 36.128906 40.650391 C 36.053732 40.683306 35.983757 40.709423 35.910156 40.736328 C 35.787728 40.780438 35.674096 40.823706 35.560547 40.853516 C 35.48461 40.873966 35.421554 40.885341 35.351562 40.900391 C 35.25412 40.920883 35.185506 40.9411 35.103516 40.953125 C 34.817394 40.998316 34.625 41 34.625 41 L 28.375 41 C 26.732412 41 25.184802 42.036785 25.029297 43.621094 C 25.012635 43.858104 25 44.100867 25 44.375 L 25 47 L 25 49.84375 C 25 52.00775 27.68875 54 30.71875 54 L 32.28125 54 C 35.31125 54 38.1894 51.99915 38 49.84375 L 38 47 L 40.09375 47 C 42.25775 47 44 45.06125 44 42.03125 L 44 40.46875 C 44 37.43975 42.25775 35 40.09375 35 L 38 35 z M 34.5 48 C 35.32843 48 36 48.67157 36 49.5 C 36 50.32843 35.32843 51 34.5 51 C 33.672 51 33 50.328 33 49.5 C 33 48.672 33.672 48 34.5 48 z"/>
 <path style="opacity:0.2;fill:#ffffff" d="m 14.5,7.0000002 c -1.385,0 -2.5,1.115 -2.5,2.5 V 10.5 C 12,9.1150002 13.115,8.0000002 14.5,8.0000002 H 37 c 0,-1 0,0 0,-1 z"/>
</svg>

<svg xmlns="http://www.w3.org/2000/svg" width="64" height="64" version="1">
 <path style="opacity:0.2" d="m 14.5,8.0000002 c -1.385,0 -2.5,1.115 -2.5,2.4999998 v 45 c 0,1.385 1.115,2.5 2.5,2.5 h 35 C 50.885,58 52,56.885 52,55.5 V 23 L 38.25,21.75 37,8.0000002 Z"/>
 <path fill="#ccc" d="m14.5 7c-1.385 0-2.5 1.115-2.5 2.5v45c0 1.385 1.115 2.5 2.5 2.5h35c1.385 0 2.5-1.115 2.5-2.5v-32.5l-13.75-1.25-1.25-13.75z"/>
 <path style="opacity:0.2" d="M 37,8.0000002 V 20.5 c 0,1.3808 1.1193,2.5 2.5,2.5 H 52 Z"/>
 <path fill="#ebebeb" d="m37 7v12.5c0 1.3808 1.1193 2.5 2.5 2.5h12.5l-15-15z"/>
 <path opacity=".5" d="m30.719 28c-3.03 0-5.908 2.001-5.719 4.156v2.844h-2.094c-2.164 0-3.906 1.939-3.906 4.969v1.562c0 3.03 1.742 5.469 3.906 5.469h2.094v-3.125c0-1.731 1.644-2.875 3.375-2.875h6.25s3.375-0.25 3.375-3.375v-5.469c0-2.164-2.689-4.156-5.719-4.156h-1.562zm-2.219 3c0.828 0 1.5 0.672 1.5 1.5s-0.672 1.5-1.5 1.5-1.5-0.672-1.5-1.5 0.672-1.5 1.5-1.5z"/>
 <path opacity=".3" d="m32.281 54c3.03 0 5.9082-2.0008 5.7188-4.1562v-2.844h2.094c2.164 0 3.906-1.939 3.906-4.969v-1.5625c0-3.029-1.742-5.468-3.906-5.468h-2.094v3.125c0 1.731-1.644 2.875-3.375 2.875h-6.25s-3.375 0.25-3.375 3.375v5.4688c0 2.164 2.689 4.156 5.719 4.156h1.5625zm2.219-3c-0.828 0-1.5-0.672-1.5-1.5s0.672-1.5 1.5-1.5c0.82843 0 1.5 0.67157 1.5 1.5s-0.67157 1.5-1.5 1.5z"/>
 <path style="opacity:0.2;fill:#ffffff" d="m 14.5,7.0000002 c -1.385,0 -2.5,1.115 -2.5,2.5 V 10.5 C 12,9.1150002 13.115,8.0000002 14.5,8.0000002 H 37 c 0,-1 0,0 0,-1 z"/>
</svg>
